24x24/apps/ADLplug.svg

<svg width="24" height="24" version="1" xmlns="http://www.w3.org/2000/svg">
 <rect x="2" y="2" width="20" height="20" rx="1" ry="1" style="fill:#3a6688"/>
 <path d="m3 2c-0.554 0-1 0.446-1 1v0.5c0-0.554 0.446-1 1-1h18c0.554 0 1 0.446 1 1v-0.5c0-0.554-0.446-1-1-1z" style="fill:#f4f4f7;opacity:.2"/>
 <path d="m3 22.5c-0.554 0-1-0.446-1-1v-0.5c0 0.554 0.446 1 1 1h18c0.554 0 1-0.446 1-1v0.5c0 0.554-0.446 1-1 1z" style="opacity:.2"/>
 <path d="m16.492188 8.4941406a0.50005 0.50005 0 0 0-0.492188 0.5058594v8a0.50005 0.50005 0 0 0 0.5 0.5h4a0.50005 0.50005 0 1 0 0-1h-3.5v-7.5a0.50005 0.50005 0 0 0-0.507812-0.5058594zm-9.992188 0.0058594c-1.166666 0-1.8876376 0.6580872-2.1972656 1.2773438-0.309629 0.6192562-0.3027344 1.2226562-0.3027344 1.2226562v2.908203a0.50005 0.50005 0 0 0 0 0.173828v2.917969a0.50005 0.50005 0 1 0 1 0v-2.5h3v2.5a0.50005 0.50005 0 1 0 1 0v-2.923828a0.50005 0.50005 0 0 0 0-0.152344v-2.923828s0.0068996-0.6034-0.3027344-1.2226562c-0.309629-0.6192567-1.0305986-1.2773438-2.1972656-1.2773438zm3.96875 0.0957031a0.50005 0.50005 0 0 0-0.46875 0.4980469v8a0.50005 0.50005 0 0 0 0.46875 0.5s1.122378 0.077039 2.259766-0.453125c1.137001-0.529989 2.294849-1.76682 2.271484-4.048828-7.85e-4 -2.280374-1.157991-3.5127787-2.289062-4.0429689-1.131457-0.5303704-2.242188-0.453125-2.242188-0.453125zm-3.96875 0.9042969c0.833334 0 1.1123624 0.3438667 1.3027344 0.724609 0.190371 0.380744 0.1972656 0.775391 0.1972656 0.775391v2.5h-3v-2.5s0.0068996-0.394647 0.1972656-0.775391c0.190371-0.3807423 0.4694024-0.724609 1.3027344-0.724609zm4.5 0.1894531c0.300144 0.00773 0.650412-0.03478 1.287109 0.2636719 0.868542 0.407129 1.712891 1.172489 1.712891 3.140625a0.50005 0.50005 0 0 0 0 0.005859c0.02082 1.966503-0.821452 2.727434-1.695312 3.134766-0.642866 0.299657-1.001995 0.258118-1.304688 0.265625v-6.8105469z" style="opacity:.2"/>
 <path d="m16.492188 7.9941406a0.50005 0.50005 0 0 0-0.492188 0.5058594v8a0.50005 0.50005 0 0 0 0.5 0.5h4a0.50005 0.50005 0 1 0 0-1h-3.5v-7.5a0.50005 0.50005 0 0 0-0.507812-0.5058594zm-9.992188 0.0058594c-1.166666 0-1.8876376 0.6580872-2.1972656 1.2773438-0.309629 0.6192566-0.3027344 1.2226562-0.3027344 1.2226562v2.908203a0.50005 0.50005 0 0 0 0 0.173828v2.917969a0.50005 0.50005 0 1 0 1 0v-2.5h3v2.5a0.50005 0.50005 0 1 0 1 0v-2.923828a0.50005 0.50005 0 0 0 0-0.152344v-2.923828s0.0068996-0.6033994-0.3027344-1.2226562c-0.309629-0.6192567-1.0305986-1.2773438-2.1972656-1.2773438zm3.96875 0.0957031a0.50005 0.50005 0 0 0-0.46875 0.4980469v8a0.50005 0.50005 0 0 0 0.46875 0.5s1.122378 0.077039 2.259766-0.453125c1.137001-0.529989 2.294849-1.76682 2.271484-4.048828-7.85e-4 -2.280374-1.157991-3.5127787-2.289062-4.0429689-1.131457-0.5303704-2.242188-0.453125-2.242188-0.453125zm-3.96875 0.9042969c0.833334 0 1.1123624 0.3438666 1.3027344 0.7246094 0.190371 0.3807426 0.1972656 0.7753906 0.1972656 0.7753906v2.5h-3v-2.5s0.0068996-0.394648 0.1972656-0.7753906c0.190371-0.3807428 0.4694024-0.7246094 1.3027344-0.7246094zm4.5 0.1894531c0.300144 0.00773 0.650412-0.03478 1.287109 0.2636719 0.868542 0.4071293 1.712891 1.172489 1.712891 3.140625a0.50005 0.50005 0 0 0 0 0.005859c0.02082 1.966503-0.821452 2.727434-1.695312 3.134766-0.642866 0.299657-1.001995 0.258118-1.304688 0.265625v-6.8105469z" style="fill:#a1eae9"/>
</svg>

<svg width="24" height="24" version="1" xmlns="http://www.w3.org/2000/svg"><rect x="2" y="2" width="20" height="20" rx="1" ry="1" style="fill:#3a6688"/><path d="M3 2c-.554 0-1 .446-1 1v.5c0-.554.446-1 1-1h18c.554 0 1 .446 1 1V3c0-.554-.446-1-1-1z" style="fill:#f4f4f7;opacity:.2"/><path d="M3 22.5c-.554 0-1-.446-1-1V21c0 .554.446 1 1 1h18c.554 0 1-.446 1-1v.5c0 .554-.446 1-1 1zM16.492 8.494A.5.5 0 0 0 16 9v8a.5.5 0 0 0 .5.5h4a.5.5 0 1 0 0-1H17V9a.5.5 0 0 0-.508-.506zM6.5 8.5c-1.167 0-1.888.658-2.197 1.277C3.993 10.397 4 11 4 11v2.908a.5.5 0 0 0 0 .174V17a.5.5 0 1 0 1 0v-2.5h3V17a.5.5 0 1 0 1 0v-2.924a.5.5 0 0 0 0-.152V11s.007-.603-.303-1.223C8.387 9.158 7.667 8.5 6.5 8.5zm3.969.096a.5.5 0 0 0-.469.498v8a.5.5 0 0 0 .469.5s1.122.077 2.26-.453c1.137-.53 2.294-1.767 2.271-4.05 0-2.28-1.158-3.512-2.29-4.042-1.13-.53-2.241-.453-2.241-.453zM6.5 9.5c.833 0 1.112.344 1.303.725.19.38.197.775.197.775v2.5H5V11s.007-.395.197-.775c.19-.381.47-.725 1.303-.725zm4.5.19c.3.007.65-.035 1.287.263.869.407 1.713 1.173 1.713 3.14a.5.5 0 0 0 0 .007c.02 1.966-.821 2.727-1.695 3.134-.643.3-1.002.258-1.305.266V9.69z" style="opacity:.2"/><path d="M16.492 7.994A.5.5 0 0 0 16 8.5v8a.5.5 0 0 0 .5.5h4a.5.5 0 1 0 0-1H17V8.5a.5.5 0 0 0-.508-.506zM6.5 8c-1.167 0-1.888.658-2.197 1.277C3.993 9.897 4 10.5 4 10.5v2.908a.5.5 0 0 0 0 .174V16.5a.5.5 0 1 0 1 0V14h3v2.5a.5.5 0 1 0 1 0v-2.924a.5.5 0 0 0 0-.152V10.5s.007-.603-.303-1.223C8.387 8.658 7.667 8 6.5 8zm3.969.096a.5.5 0 0 0-.469.498v8a.5.5 0 0 0 .469.5s1.122.077 2.26-.453c1.137-.53 2.294-1.767 2.271-4.05 0-2.28-1.158-3.512-2.29-4.042-1.13-.53-2.241-.453-2.241-.453zM6.5 9c.833 0 1.112.344 1.303.725.19.38.197.775.197.775V13H5v-2.5s.007-.395.197-.775C5.387 9.344 5.667 9 6.5 9zm4.5.19c.3.007.65-.035 1.287.263.869.407 1.713 1.173 1.713 3.14a.5.5 0 0 0 0 .007c.02 1.966-.821 2.727-1.695 3.134-.643.3-1.002.258-1.305.266V9.19z" style="fill:#a1eae9"/></svg>
